X: 30
T: Ha que ville I
N: Derived from Bus3023-Ha_que_ville_I.krn
C: Antoine Busnoys
%%abc-version 2.0
%%abcx-abcm2ps-target-version 5.9.1 (29 Sep 2008)
%%abc-creator hum2abc beta
%%abcx-conversion-date 2019/02/16 20:26:07
%%abc-edited-by Jesse Rodin
%%abc-edited-by Chris Gage 04-20-2015
%%abcx-initial-encoding-date 2015/05/05/
%%humdrum-veritas 4234610073
%%humdrum-veritas-data 3213516216
%%linebreak <none>
%%barnumbers 0
L: 1/4
M: 2/1
Q: 1/2=120
V: 1 clef=treble
V: 2 clef=treble-8
V: 3 clef=bass
K: F
[V:1] G4B2A2- | 
[V:2] G6F2 | 
[V:3] z8 | 
[V:1] AGG4F2 | 
[V:2] G2B2A4 | 
[V:3] z8 | 
[V:1] G2FED3C | 
[V:2] G2B3A/G/F2 | 
[V:3] G,,6B,,2- | 
[V:1] D2B,2A,4 | 
[V:2] D2G4^F2 | 
[V:3] B,,2G,,2D,3C, | 
[V:1] G,4z4 | 
[V:2] G2d4c2 | 
[V:3] B,,2A,,G,,^F,,4 | 
[V:1] z4C4 | 
[V:2] B2AG^F3E | 
[V:3] G,,2B,,2A,,4 | 
[V:1] B,G,B,4A,2 | 
[V:2] G4z4 | 
[V:3] G,,4C,4 | 
[V:1] B,2G,2F,2A,2 | 
[V:2] d6c2- | 
[V:3] B,,4z4 | 
[V:1] B,2D2C4 | 
[V:2] c2B4A2 | 
[V:3] z2D,2E,2F,2 | 
[V:1] B,4z4 | 
[V:2] B2d3cB2 | 
[V:3] G,2D,2F,2G,2 | 
[V:1] F4G3F | 
[V:2] A4G4- | 
[V:3] D,4G,,4 | 
[V:1] D2D4^C2 | 
[V:2] G2F2E4 | 
[V:3] z4A,,4 | 
[V:1] D2B,3G,A,2 | 
[V:2] D2G4F2 | 
[V:3] B,,3G,,B,,C,A,,2 | 
[V:1] B,3A,F,4 | 
[V:2] G2B2A2c2 | 
[V:3] G,,B,,2C,D,2F,,2 | 
[V:1] z8 | 
[V:2] B2G4^F2 | 
[V:3] G,,2B,,2A,,4 | 
[V:1] G,4A,4 | 
[V:2] G4z4 | 
[V:3] G,,2C,4B,,A,, | 
[V:1] B,4C4 | 
[V:2] d4e4 | 
[V:3] G,,4z4 | 
[V:1] D4C2F2- | 
[V:2] f3de2d2- | 
[V:3] z8 | 
[V:1] F2D2_E2C2 | 
[V:2] d2B2c2A2 | 
[V:3] z8 | 
[V:1] B,4z4 | 
[V:2] G2d2e2f2 | 
[V:3] G,,6F,,2 | 
[V:1] z4A,4 | 
[V:2] d2g4^f2 | 
[V:3] B,,2C,2D,3C, | 
[V:1] G,2B,2C2D2- | 
[V:2] g4z4 | 
[V:3] B,,2G,,2A,,2B,,2 | 
[V:1] D2B,2C2A,2 | 
[V:2] z8 | 
[V:3] G,,4F,,4 | 
[V:1] B,2A,G,^F,3E, | 
[V:2] d6c2 | 
[V:3] G,,2B,,2A,,4 | 
[V:1] G,4z4 | 
[V:2] _e2d4c2 | 
[V:3] G,,4F,,4 | 
[V:1] G4A4 | 
[V:2] B2c3BA2 | 
[V:3] z4F,,4 | 
[V:1] B4A4 | 
[V:2] G2d4c2 | 
[V:3] G,,4F,,4 | 
[V:1] D2E2FEDC | 
[V:2] B2G2A4 | 
[V:3] G,,4F,,4 | 
[V:1] B,2D4C2 | 
[V:2] G4^F4 | 
[V:3] G,,2B,,2A,,4 | 
[V:1] D2G,4F,2 | 
[V:2] G2d3cBA | 
[V:3] G,,2B,,2A,,4 | 
[V:1] G,4A,4 | 
[V:2] B2AGF2c2 | 
[V:3] G,,4z2F,2 | 
[V:1] G,2B3AA2- | 
[V:2] B2d3Ac2- | 
[V:3] G,3F,D,2C,2- | 
[V:1] AGG3^FFE | 
[V:2] cGB2A4 | 
[V:3] C,B,,G,,2D,4 | 
[V:1] G8 |]  
[V:2] G8 |]  
[V:3] G,,8 |]  



